X: 31936
T: Pearl O'Shaughnessy's
R: barndance
M: 4/4
K: Gmajor
|:B>c|d>Be>d B2 g2|f>eg>e c2 e>g|(3fgf e>d (3fgf e>d|(3BcB A>G B2 B>c|
d>Be>d B2 g2|f>eg>e c2 e>g|(3fgf e>d ^c>de>f|g2 b2 g2:|
|:B>c|d2 b2 b2 c’>b|a2 e2 e2 a>g|(3fgf e>d (3fgf e>d|(3BcB A>G B2 B>c|
d2 b2 b2 c’>b|a2 e2 e2 a>g|(3fgf e>d ^c>de>f|g2 b2 g2:|

